public/img/icon/location-icon.svg

<svg width="25" height="25" viewBox="0 0 25 25" fill="none" xmlns="http://www.w3.org/2000/svg">
<path d="M21.4791 8.80192C20.3854 3.98942 16.1875 1.82275 12.5 1.82275C12.5 1.82275 12.5 1.82275 12.4896 1.82275C8.81248 1.82275 4.60414 3.979 3.51039 8.7915C2.29164 14.1665 5.58331 18.7186 8.56248 21.5832C9.66664 22.6457 11.0833 23.1769 12.5 23.1769C13.9166 23.1769 15.3333 22.6457 16.4271 21.5832C19.4062 18.7186 22.6979 14.1769 21.4791 8.80192ZM12.5 14.0207C10.6875 14.0207 9.21873 12.5519 9.21873 10.7394C9.21873 8.92692 10.6875 7.45817 12.5 7.45817C14.3125 7.45817 15.7812 8.92692 15.7812 10.7394C15.7812 12.5519 14.3125 14.0207 12.5 14.0207Z" fill="#00FF97"/>
</svg>

<svg version="1.2" xmlns="http://www.w3.org/2000/svg" viewBox="0 0 25 25" width="25" height="25">
	<style>
		.s0 { fill: #3a92de } 
	</style>
	<path class="s0" d="m21.48 8.8c-1.09-4.81-5.29-6.98-8.98-6.98q0 0-0.01 0c-3.68 0-7.89 2.16-8.98 6.97-1.22 5.38 2.07 9.93 5.05 12.79 1.11 1.07 2.52 1.6 3.94 1.6 1.42 0 2.83-0.53 3.93-1.6 2.98-2.86 6.27-7.4 5.05-12.78zm-8.98 5.22c-1.81 0-3.28-1.47-3.28-3.28 0-1.81 1.47-3.28 3.28-3.28 1.81 0 3.28 1.47 3.28 3.28 0 1.81-1.47 3.28-3.28 3.28z"/>
</svg>
